actions/scalable/mail-mark-junk.svg

<?xml version="1.0" encoding="UTF-8" standalone="no"?>
<!-- Created with Inkscape (http://www.inkscape.org/) -->

<svg
   xmlns:dc="http://purl.org/dc/elements/1.1/"
   xmlns:cc="http://creativecommons.org/ns#"
   xmlns:rdf="http://www.w3.org/1999/02/22-rdf-syntax-ns#"
   xmlns:svg="http://www.w3.org/2000/svg"
   xmlns="http://www.w3.org/2000/svg"
   xmlns:sodipodi="http://sodipodi.sourceforge.net/DTD/sodipodi-0.dtd"
   xmlns:inkscape="http://www.inkscape.org/namespaces/inkscape"
   width="22"
   height="22"
   id="svg3869"
   version="1.1"
   inkscape:version="0.48+devel r"
   sodipodi:docname="mail-mark-junk.svg">
  <defs
     id="defs3871" />
  <sodipodi:namedview
     id="base"
     pagecolor="#ffffff"
     bordercolor="#666666"
     borderopacity="1.0"
     inkscape:pageopacity="0.0"
     inkscape:pageshadow="2"
     inkscape:zoom="16"
     inkscape:cx="22.42197"
     inkscape:cy="10.138424"
     inkscape:document-units="px"
     inkscape:current-layer="layer1"
     showgrid="true"
     fit-margin-top="0"
     fit-margin-left="0"
     fit-margin-right="0"
     fit-margin-bottom="0"
     inkscape:window-width="1366"
     inkscape:window-height="666"
     inkscape:window-x="-2"
     inkscape:window-y="25"
     inkscape:window-maximized="1"
     inkscape:showpageshadow="false"
     showguides="true">
    <inkscape:grid
       type="xygrid"
       id="grid4132" />
    <sodipodi:guide
       position="2,20.000017"
       orientation="18,0"
       id="guide4138" />
    <sodipodi:guide
       position="2,2.0000174"
       orientation="0,18"
       id="guide4140" />
    <sodipodi:guide
       position="20,2.0000174"
       orientation="-18,0"
       id="guide4142" />
    <sodipodi:guide
       position="20,20.000017"
       orientation="0,-18"
       id="guide4144" />
    <sodipodi:guide
       position="3,19.000017"
       orientation="16,0"
       id="guide4146" />
    <sodipodi:guide
       position="3,3.0000174"
       orientation="0,16"
       id="guide4148" />
    <sodipodi:guide
       position="19,3.0000174"
       orientation="-16,0"
       id="guide4150" />
    <sodipodi:guide
       position="19,19.000017"
       orientation="0,-16"
       id="guide4152" />
    <sodipodi:guide
       position="0,9.0000174"
       orientation="6,0"
       id="guide4181" />
    <sodipodi:guide
       position="0,3.0000174"
       orientation="0,22"
       id="guide4183" />
    <sodipodi:guide
       position="22,3.0000174"
       orientation="-6,0"
       id="guide4185" />
    <sodipodi:guide
       position="-1,19.000017"
       orientation="16,0"
       id="guide4193" />
    <sodipodi:guide
       position="-1,3.0000174"
       orientation="0,12"
       id="guide4195" />
    <sodipodi:guide
       position="11,3.0000174"
       orientation="-16,0"
       id="guide4197" />
    <sodipodi:guide
       position="11,19.000017"
       orientation="0,-12"
       id="guide4199" />
    <sodipodi:guide
       position="11,9.048828"
       orientation="-1.414063,0"
       id="guide4223" />
    <sodipodi:guide
       position="2.4628906,19"
       orientation="0,-1.4140625"
       id="guide4227" />
    <sodipodi:guide
       position="11,9.04883"
       orientation="-1.41406,0"
       id="guide4233" />
    <sodipodi:guide
       position="19.53711,19"
       orientation="0,1.41406"
       id="guide4237" />
  </sodipodi:namedview>
  <metadata
     id="metadata3874">
    <rdf:RDF>
      <cc:Work
         rdf:about="">
        <dc:format>image/svg+xml</dc:format>
        <dc:type
           rdf:resource="http://purl.org/dc/dcmitype/StillImage" />
        <dc:title />
      </cc:Work>
    </rdf:RDF>
  </metadata>
  <g
     inkscape:label="Capa 1"
     inkscape:groupmode="layer"
     id="layer1"
     transform="translate(-326,-534.3622)">
    <path
       style="opacity:1;fill:#666666;fill-opacity:1;stroke:none;stroke-width:2.79999995;stroke-miterlimit:4;stroke-dasharray:none;stroke-opacity:0.55026455"
       d="M 1 3 L 1 4 L 1 12 L 1 18 L 1 18.414062 L 1 19 L 2 19 L 8 19 L 14 19 L 14 18 L 8 18 L 2 18 L 2 17.414062 L 2.4628906 16.951172 L 8.7304688 10.683594 L 10.183594 12.134766 L 10.998047 12.949219 L 11 12.949219 L 11.816406 12.134766 L 13.269531 10.683594 L 14.585938 12 L 16 12 L 13.976562 9.9765625 L 19.728516 4.2226562 L 19.951172 4 L 20 4 L 20 4.2226562 L 20 12 L 21 12 L 21 3 L 20.951172 3 L 20 3 L 19.537109 3 L 2.4628906 3 L 2 3 L 1 3 z M 2 4 L 2.0488281 4 L 2.2714844 4.2226562 L 8.0234375 9.9765625 L 2 16 L 2 12 L 2 4.2226562 L 2 4 z M 3.4628906 4 L 18.537109 4 L 11 11.537109 L 3.4628906 4 z "
       transform="translate(326,534.3622)"
       id="rect4144" />
    <path
       style="opacity:1;fill:#da4453;fill-opacity:1;stroke:none;stroke-width:2.79999995;stroke-miterlimit:4;stroke-dasharray:none;stroke-opacity:0.55026455"
       d="m 18,13 c -1.661995,0 -3,1.338005 -3,3 0,1.661995 1.338005,3 3,3 1.661995,0 3,-1.338005 3,-3 0,-1.661995 -1.338005,-3 -3,-3 z m 0,1 c 0.371625,0 0.714197,0.106065 1.011719,0.28125 L 16.28125,17.011719 C 16.106065,16.714197 16,16.371625 16,16 c 0,-1.107997 0.892003,-2 2,-2 z m 1.71875,0.988281 C 19.893935,15.285803 20,15.628375 20,16 c 0,1.107997 -0.892003,2 -2,2 -0.371625,0 -0.714197,-0.106065 -1.011719,-0.28125 z"
       transform="translate(326,534.3622)"
       id="rect4156"
       inkscape:connector-curvature="0"
       sodipodi:nodetypes="ssssssccsscsscc" />
  </g>
</svg>

<svg height="22" width="22" xmlns="http://www.w3.org/2000/svg" xmlns:sodipodi="http://sodipodi.sourceforge.net/DTD/sodipodi-0.dtd" xmlns:inkscape="http://www.inkscape.org/namespaces/inkscape">
 <path d="m1 3v1 8 6 0.414 0.586h1 6 6v-1h-6-6v-0.586l0.4629-0.463 6.2676-6.267 1.4535 1.451 0.814 0.814h0.002l0.816-0.814 1.454-1.451 1.316 1.316h1.414l-2.023-2.0234 5.752-5.7539 0.222-0.2227h0.049v0.2227 7.7773h1v-9h-0.049-0.951-0.463-17.074-0.463-1zm1 1h0.0488l0.2227 0.2227 5.7519 5.7539-6.0234 6.0234v-4-7.7773-0.2227zm1.4629 0h15.074l-7.537 7.537-7.5371-7.537z" fill="#4d4d4d" transform="matrix(1 0 0 1 0 0)"/>
 <path d="m18 13c-1.662 0-3 1.338-3 3s1.338 3 3 3 3-1.338 3-3-1.338-3-3-3zm0 1c0.37162 0 0.7142 0.10606 1.0117 0.28125l-2.731 2.731c-0.175-0.298-0.281-0.64-0.281-1.012 0-1.108 0.892-2 2-2zm1.7188 0.98828c0.175 0.298 0.281 0.64 0.281 1.012 0 1.108-0.892 2-2 2-0.37162 0-0.7142-0.10606-1.0117-0.28125z" fill="#da4453" transform="matrix(1 0 0 1 0 0)"/>
</svg>
